X:1
T:Derrick
T:F Major            William Walker, 1847
T:Transcribed from Southern Harmony, 1854.
T:Philip Doddridge, 1755            
%%score [ 1 2 3 4 ]
L:1/8
Q:1/4=200
M:3/2
K:F
V:1 treble nm="Tr." snm="Tr."
V:2 treble nm="A." snm="A."
V:3 treble-8 nm="T." snm="T."
V:4 bass nm="B." snm="B."
V:1
"_Hark the glad sound! the Savior comes!  The Savior promised long!  Let\n          eve  – ry  heart  pre–pare a throne,  And  every  voice  a                 song.""_1.{" c4 |: %1
 f8 c4 | A8 A4 | F8 A4 | c8 c4 | d8 f4 | f8 c4 |1 c8 c4 :|2 %8
"_}" c8"_On  him  the  Spirit   largely poured  Ex – erts  its  sa    –    cred   fire;  Wis – dom and" A4 || %9
 c8 A4 | c8 A4 | F8 G4 | A8 e4 | f8 c4 | (d2 c6) B4 | c8 (F2 A2) | c8 B4 | %17
"_might, and  zeal   and   love   His    ho   –   ly         breast  in  –  spire." A8 A4 | F8 A4 | %19
 c8 c4 | d8 f4 | f8 c4 | c12 |] %23
V:2
"_He  comes  the  prisoners  to   re –lease,  In  Satan's  bondage held; The\n        gates  of  brass  be–fore  him burst,  The  ir – on  fetters                  yield.""_2.{" A4 |: %1
 A8 F4 | F8 F4 | F8 F4 | A8 G4 | F8 B4 | A8 G4 |1 A8 A4 :|2 %8
"_He comes from thickest films of vice  To  clear  the  men  –  tal    ray,   And     on    the""_}" A8 F4 || %9
 A8 F4 | A8 F4 | F8 G4 | F8 A4 | c8 A4 | A8 G4 | A8 (F2 A2) | A8 F4 | %17
"_eyes  op–pressed with night   To     pour    ce    –    les   –  tial   day." F8 F4 | F8 F4 | %19
 A8 G4 | F8 B4 | A8 G4 | A12 |] %23
V:3
"_He  comes  the  broken  heart  to  bind,  The bleeding soul  to  cure,  And\n         with   the  treasures  of  his grace  T'en–rich the  humble                poor.""_3.{" F4 |: %1
 c8 c4 | F8 d4 | c8 c4 | F8 G4 | A8 B4 | c8 G4 |1 F8 F4 :|2 %8
"_}" F8"_Our glad hosannas, Prince of Peace, Thy welcome  shall  pro –claim;  And  heav'n's e –" c4 || %9
 f8 a4 | f8 c4 | f8 d4 | c8 c4 | f8 f4 | (f2 e6) d4 | c8 c4 | f8 f4 | %17
"_–ter – nal   ar  –  ches   ring   With   thy     be    –    lo   –  ved   name." F8 d4 | c8 c4 | %19
 F8 G4 | A8 B4 | c8 G4 | F12 |] %23
V:4
 F,4 |: F,8 C,4 | D,8 D,4 | C,8 C,4 | F,8 C,4 | D,8 F,4 | F,8 C,4 |1 F,8 F,4 :|2 F,8 F,4 || %9
 F,8 D,4 | F,8 F,4 | F,8 G,4 | A,8 A,4 | F,8 F,4 | A,8 G,4 | F,8 (C2 A,2) | F,8 D,4 | D,8 D,4 | %18
 C,8 F,4 | F,8 C,4 | D,8 (D,2 E,2) | F,8 C,4 | F,12 |] %23

